public/static/icons/network/ethereum.svg

<svg width="48" height="48" viewBox="0 0 48 48" fill="none" xmlns="http://www.w3.org/2000/svg">
    <g clip-path="url(#clip0_52739_54837)">
        <path d="M23.9939 0L23.6719 1.09386V32.8322L23.9939 33.1535L38.7262 24.4451L23.9939 0Z" fill="#343434"/>
        <path d="M23.9963 0L9.26367 24.4451L23.9963 33.1535V17.7486V0Z" fill="#8C8C8C"/>
        <path d="M23.994 35.9382L23.8125 36.1596V47.4653L23.994 47.9951L38.7353 27.2344L23.994 35.9382Z" fill="#3C3C3B"/>
        <path d="M23.9963 47.9951V35.9382L9.26367 27.2344L23.9963 47.9951Z" fill="#8C8C8C"/>
        <path d="M23.9941 33.1701L38.7264 24.4617L23.9941 17.7651V33.1701Z" fill="#141414"/>
        <path d="M9.26367 24.4617L23.9963 33.1701V17.7651L9.26367 24.4617Z" fill="#393939"/>
    </g>
    <defs>
        <clipPath id="clip0_52739_54837">
            <rect width="48" height="48" fill="white"/>
        </clipPath>
    </defs>
</svg>

<svg xmlns="http://www.w3.org/2000/svg" width="48" height="48" fill="none"><g clip-path="url(#a)"><path fill="#343434" d="m23.994 0-.322 1.094v31.738l.322.322 14.732-8.709L23.994 0Z"/><path fill="#8C8C8C" d="M23.996 0 9.264 24.445l14.732 8.709V0Z"/><path fill="#3C3C3B" d="m23.994 35.938-.181.222v11.305l.181.53 14.741-20.76-14.741 8.703Z"/><path fill="#8C8C8C" d="M23.996 47.995V35.938L9.264 27.234l14.732 20.761Z"/><path fill="#141414" d="m23.994 33.17 14.732-8.708-14.732-6.697V33.17Z"/><path fill="#393939" d="m9.264 24.462 14.732 8.708V17.765L9.264 24.462Z"/></g><defs><clipPath id="a"><path fill="#fff" d="M0 0h48v48H0z"/></clipPath></defs></svg>
